X:2
T:Crossing To Ireland
R: Slow waltz
R:Slow Waltz
C:Scottish Trad, Simon Fraser Collection
S:The Waltz Book
M:3/4
L:1/4
Q:120
K:G
E/F/|:"Em"G E E/D/|B, E&amp;gt;F|G E/F/ G|B&amp;gt;B A/G/|"D"F D D|
A, D D|F D D|"Bm"A&amp;gt;A G/F/|"Em"G E E/D/|B, E&amp;gt;F|G E/F/ G|
B2 A|"G"G&amp;gt;A B/^c/|"D"d ^c B|"B7"A G F|1 "Em" E2 E/F/:|2 "Em" E&amp;gt;e e/f/||
"Em"g e e|B e&amp;gt;B|G E E|E&amp;gt;b a/g/|"D"f d d|A d&amp;gt;A|F D D|D&amp;gt;a g/f/|
"Em"g e e|B e&amp;gt;B|G E g|"Bm"f2 e|"G"G&amp;gt;A B/^c/|"D"d ^c B|"B7"A G F|"Em"E2
e/f/|
"Em"gee|Bee|EGB|e/f/ g/b/ a/g/|"D"fdd|A d&amp;gt;A|DFA|"Bm"d/e/ f/g/ a/f/|
"Em"g&amp;gt;f e|"B7"f&amp;gt;\^ed|"Em"e&amp;gt;d B|"D"A&amp;gt;G F|"G"G&amp;gt;A B/^c/|"D"d ^c B|"B7"A G
F|"Em"E3||
